assets/images/logo.svg

<?xml version="1.0" encoding="UTF-8"?>
<svg width="207px" height="53px" viewBox="0 0 207 53" version="1.1" xmlns="http://www.w3.org/2000/svg" xmlns:xlink="http://www.w3.org/1999/xlink">
    <!-- Generator: Sketch 53.1 (72631) - https://sketchapp.com -->
    <title>logo-svg</title>
    <desc>Created with Sketch.</desc>
    <defs>
        <linearGradient x1="0%" y1="50%" x2="100%" y2="50%" id="linearGradient-1">
            <stop stop-color="#FF7373" offset="0%"></stop>
            <stop stop-color="#FDDB33" offset="100%"></stop>
        </linearGradient>
        <path d="M74.2326565,17.8165181 L74.2326565,35.0935181 C74.2326565,39.0195377 73.1666672,41.9640083 71.0346565,43.9270181 C68.9026459,45.8900279 65.8346766,46.8715181 61.8306565,46.8715181 C59.7506461,46.8715181 57.8006656,46.6375204 55.9806565,46.1695181 C54.1606474,45.7015157 52.6136629,45.0125226 51.3396565,44.1025181 L54.0306565,38.9155181 C54.8886608,39.6175216 55.97415,40.1700161 57.2871565,40.5730181 C58.6001631,40.9760201 59.8936502,41.1775181 61.1676565,41.1775181 C63.1176663,41.1775181 64.547652,40.7485224 65.4576565,39.8905181 C66.3676611,39.0325138 66.8226565,37.7585265 66.8226565,36.0685181 L66.8226565,35.3665181 C65.3926494,37.0305264 63.2996703,37.8625181 60.5436565,37.8625181 C58.6716472,37.8625181 56.9426645,37.4400223 55.3566565,36.5950181 C53.7706486,35.7500138 52.5096612,34.5540258 51.5736565,33.0070181 C50.6376519,31.4600103 50.1696565,29.6725282 50.1696565,27.6445181 C50.1696565,25.6425081 50.6376519,23.8680258 51.5736565,22.3210181 C52.5096612,20.7740103 53.7706486,19.5780223 55.3566565,18.7330181 C56.9426645,17.8880138 58.6716472,17.4655181 60.5436565,17.4655181 C63.5596716,17.4655181 65.7696495,18.4405083 67.1736565,20.3905181 L67.1736565,17.8165181 L74.2326565,17.8165181 Z M62.2986565,31.9735181 C63.6246632,31.9735181 64.7231522,31.5705221 65.5941565,30.7645181 C66.4651609,29.958514 66.9006565,28.9185244 66.9006565,27.6445181 C66.9006565,26.3705117 66.4716608,25.337022 65.6136565,24.5440181 C64.7556523,23.7510141 63.6506633,23.3545181 62.2986565,23.3545181 C60.9466498,23.3545181 59.8351609,23.7510141 58.9641565,24.5440181 C58.0931522,25.337022 57.6576565,26.3705117 57.6576565,27.6445181 C57.6576565,28.9185244 58.0996521,29.958514 58.9836565,30.7645181 C59.867661,31.5705221 60.9726499,31.9735181 62.2986565,31.9735181 Z M100.596657,28.4245181 C100.596657,28.4765183 100.557657,29.0875122 100.479657,30.2575181 L85.1136565,30.2575181 C85.4256581,31.3495235 86.0301521,32.1880151 86.9271565,32.7730181 C87.824161,33.358021 88.9486498,33.6505181 90.3006565,33.6505181 C91.3146616,33.6505181 92.1921528,33.5075195 92.9331565,33.2215181 C93.6741603,32.9355166 94.4216528,32.4675213 95.1756565,31.8175181 L99.0756565,35.8735181 C97.0216463,38.1615295 94.0186763,39.3055181 90.0666565,39.3055181 C87.5966442,39.3055181 85.4256659,38.8375228 83.5536565,37.9015181 C81.6816472,36.9655134 80.2321617,35.6655264 79.2051565,34.0015181 C78.1781514,32.3375098 77.6646565,30.4525286 77.6646565,28.3465181 C77.6646565,26.2665077 78.1651515,24.4010263 79.1661565,22.7500181 C80.1671616,21.0990098 81.5516477,19.8055228 83.3196565,18.8695181 C85.0876654,17.9335134 87.0766455,17.4655181 89.2866565,17.4655181 C91.3926671,17.4655181 93.303648,17.9010137 95.0196565,18.7720181 C96.7356651,19.6430224 98.0941515,20.9040098 99.0951565,22.5550181 C100.096162,24.2060263 100.596657,26.1625068 100.596657,28.4245181 Z M89.3256565,22.7305181 C88.1816508,22.7305181 87.2261604,23.0555148 86.4591565,23.7055181 C85.6921527,24.3555213 85.2046576,25.2395125 84.9966565,26.3575181 L93.6546565,26.3575181 C93.4466555,25.2395125 92.9591604,24.3555213 92.1921565,23.7055181 C91.4251527,23.0555148 90.4696623,22.7305181 89.3256565,22.7305181 Z M118.614657,38.0965181 C117.990653,38.48652 117.230161,38.785517 116.333157,38.9935181 C115.436152,39.2015191 114.480662,39.3055181 113.466657,39.3055181 C110.710643,39.3055181 108.591664,38.6295248 107.109657,37.2775181 C105.627649,35.9255113 104.886657,33.9105315 104.886657,31.2325181 L104.886657,24.1345181 L101.805657,24.1345181 L101.805657,18.5965181 L104.886657,18.5965181 L104.886657,13.0975181 L112.296657,13.0975181 L112.296657,18.5965181 L117.132657,18.5965181 L117.132657,24.1345181 L112.296657,24.1345181 L112.296657,31.1545181 C112.296657,31.9085218 112.498155,32.5000159 112.901157,32.9290181 C113.304159,33.3580202 113.843653,33.5725181 114.519657,33.5725181 C115.377661,33.5725181 116.131653,33.3515203 116.781657,32.9095181 L118.614657,38.0965181 Z M131.055657,31.5445181 L128.871657,33.7675181 L128.871657,38.9545181 L121.461657,38.9545181 L121.461657,10.0165181 L128.871657,10.0165181 L128.871657,25.1875181 L136.437657,17.8165181 L145.212657,17.8165181 L136.437657,26.8645181 L145.953657,38.9545181 L136.983657,38.9545181 L131.055657,31.5445181 Z M158.082657,39.3055181 C155.742645,39.3055181 153.649666,38.8375228 151.803657,37.9015181 C149.957647,36.9655134 148.521162,35.6655264 147.494157,34.0015181 C146.467151,32.3375098 145.953657,30.4525286 145.953657,28.3465181 C145.953657,26.2405075 146.467151,24.3620263 147.494157,22.7110181 C148.521162,21.0600098 149.957647,19.7730227 151.803657,18.8500181 C153.649666,17.9270135 155.742645,17.4655181 158.082657,17.4655181 C160.474669,17.4655181 162.541648,17.9790129 164.283657,19.0060181 C166.025665,20.0330232 167.260653,21.456509 167.988657,23.2765181 L162.255657,26.2015181 C161.293652,24.3035086 159.889666,23.3545181 158.043657,23.3545181 C156.71765,23.3545181 155.619161,23.7965137 154.748157,24.6805181 C153.877152,25.5645225 153.441657,26.7865103 153.441657,28.3465181 C153.441657,29.932526 153.877152,31.1740136 154.748157,32.0710181 C155.619161,32.9680226 156.71765,33.4165181 158.043657,33.4165181 C159.889666,33.4165181 161.293652,32.4675276 162.255657,30.5695181 L167.988657,33.4945181 C167.260653,35.3145272 166.025665,36.7380129 164.283657,37.7650181 C162.541648,38.7920232 160.474669,39.3055181 158.082657,39.3055181 Z M179.805657,17.4655181 C183.315674,17.4655181 185.993647,18.2650101 187.839657,19.8640181 C189.685666,21.4630261 190.608657,23.9135016 190.608657,27.2155181 L190.608657,38.9545181 L183.705657,38.9545181 L183.705657,36.2245181 C182.639651,38.2785283 180.559672,39.3055181 177.465657,39.3055181 C175.827648,39.3055181 174.410663,39.0195209 173.214657,38.4475181 C172.018651,37.8755152 171.11516,37.1020229 170.504157,36.1270181 C169.893153,35.1520132 169.587657,34.0405243 169.587657,32.7925181 C169.587657,30.7905081 170.354649,29.2370236 171.888657,28.1320181 C173.422664,27.0270125 175.788641,26.4745181 178.986657,26.4745181 L183.198657,26.4745181 C183.068656,24.2385069 181.573671,23.1205181 178.713657,23.1205181 C177.699651,23.1205181 176.672662,23.2830164 175.632657,23.6080181 C174.592651,23.9330197 173.70866,24.3815152 172.980657,24.9535181 L170.484657,19.9225181 C171.654662,19.1425142 173.078148,18.5380202 174.755157,18.1090181 C176.432165,17.6800159 178.115648,17.4655181 179.805657,17.4655181 Z M179.532657,34.6255181 C180.390661,34.6255181 181.144653,34.4175202 181.794657,34.0015181 C182.44466,33.585516 182.912655,32.9745221 183.198657,32.1685181 L183.198657,30.3355181 L180.000657,30.3355181 C177.842646,30.3355181 176.763657,31.0505109 176.763657,32.4805181 C176.763657,33.1305213 177.010654,33.6505161 177.504657,34.0405181 C177.998659,34.43052 178.674652,34.6255181 179.532657,34.6255181 Z M195.288657,10.0165181 L202.698657,10.0165181 L202.698657,38.9545181 L195.288657,38.9545181 L195.288657,10.0165181 Z" id="path-2"></path>
        <filter x="-4.6%" y="-13.6%" width="109.2%" height="138.0%" filterUnits="objectBoundingBox" id="filter-3">
            <feOffset dx="0" dy="2" in="SourceAlpha" result="shadowOffsetOuter1"></feOffset>
            <feGaussianBlur stdDeviation="2" in="shadowOffsetOuter1" result="shadowBlurOuter1"></feGaussianBlur>
            <feColorMatrix values="0 0 0 0 0   0 0 0 0 0   0 0 0 0 0  0 0 0 0.44178868 0" type="matrix" in="shadowBlurOuter1"></feColorMatrix>
        </filter>
    </defs>
    <g id="Page-1" stroke="none" stroke-width="1" fill="none" fill-rule="evenodd">
        <g id="Desktop" transform="translate(-666.000000, -118.000000)" fill-rule="nonzero">
            <g id="logo-svg" transform="translate(666.000000, 118.000000)">
                <path d="M6.02179354,25.251004 C5.21931233,27.2381526 4.5145762,29.4438755 4.22818112,32.0281124 C3.12750799,41.959739 10.6748959,49.8995984 20.5355511,49.8995984 C30.3962063,49.8995984 38.3898907,41.7977912 38.3898907,31.8038153 C38.3898907,29.9592369 37.5358603,27.3331325 37.5358603,27.3331325 C36.7569727,32.5629518 32.4731407,35.5231928 32.4731407,35.5231928 C35.101849,28.5172691 33.710419,22.1874498 30.5259713,17.564257 C23.3213852,7.10461847 25.171206,-1.42108547e-14 25.171206,-1.42108547e-14 C15.5326086,8.68343373 16.116799,18.2550201 16.116799,18.2550201 C15.2319383,12.4497992 7.99523314,10.1405622 7.99523314,10.1405622 C10.3822554,14.2427711 9.52346666,17.4217871 7.92147823,20.9337349 C6.75349383,23.4939759 6.02179354,25.251004 6.02179354,25.251004 Z" id="Path" fill="#FDDB33"></path>
                <path d="M26.5606534,17.564257 C29.7451011,22.1874498 33.0733907,26.2550201 32.478593,35.4919679 L32.478593,35.4919679 C33.2716565,33.3835341 33.8664542,30.5722892 33.8526748,28.3063253 C33.8756736,24.2040161 32.5703901,20.5324297 30.5259713,17.5643574 C23.3213852,7.10461847 25.171206,-1.0658141e-14 25.171206,-1.0658141e-14 C23.5491927,1.46134538 22.2177381,2.94769076 21.1232112,4.40943775 C21.4924814,7.50863454 22.7788305,12.0737952 26.5606534,17.564257 Z" id="Path" fill="#F9C032"></path>
                <g id="getkcal">
                    <use fill="black" fill-opacity="1" filter="url(#filter-3)" xlink:href="#path-2"></use>
                    <use fill="#FFFFFF" xlink:href="#path-2"></use>
                    <use fill="url(#linearGradient-1)" xlink:href="#path-2"></use>
                </g>
                <path d="M8.12632428,17.7663655 L8.12632428,17.7663655 C7.03586185,12.4450803 9.76996262e-15,10.1860442 9.76996262e-15,10.1860442 C0.622158382,11.2553213 1.02215983,12.2614458 1.24758815,13.22751 C3.56620867,13.9511044 8.12632428,17.7663655 8.12632428,17.7663655 Z" id="Path" fill="#F9C032"></path>
                <path d="M37.5406272,27.3786145 C37.1059292,30.2975904 35.5794801,32.5091365 34.3152376,33.8940763 C33.3858662,42.2678715 26.8191014,48.911245 18.5513145,49.8342369 C19.2023205,49.9066265 19.8656191,49.9450803 20.5403179,49.9450803 C30.4009731,49.9450803 38.3946575,41.8433735 38.3946575,31.8492972 C38.3946575,30.0047189 37.5406272,27.3786145 37.5406272,27.3786145 Z" id="Path" fill="#F9C032"></path>
                <path d="M24.9670006,37.8465863 C25.6499275,39.2801205 26.1393468,40.6232932 26.1393468,41.5291165 C26.1393468,44.5266064 23.7401312,46.9565261 20.7805171,46.9565261 C17.8209029,46.9565261 15.4216873,44.5266064 15.4216873,41.5291165 C15.4216873,38.5316265 20.7805171,30.7447791 20.7805171,30.7447791 C20.7805171,30.7447791 22.0144249,32.537751 23.2980974,34.7342369 L24.9670006,37.8465863 Z" id="Path" fill="#FF7373"></path>
            </g>
        </g>
    </g>
</svg>

<?xml version="1.0" encoding="utf-8"?>
<!-- Generator: Adobe Illustrator 23.0.0, SVG Export Plug-In . SVG Version: 6.00 Build 0)  -->
<svg version="1.1" id="Layer_1" xmlns="http://www.w3.org/2000/svg" xmlns:xlink="http://www.w3.org/1999/xlink" x="0px" y="0px"
	 viewBox="0 0 207 53" style="enable-background:new 0 0 207 53;" xml:space="preserve">
<style type="text/css">
	.st0{fill:#90E0EF;}
	.st1{fill:#0077B6;}
	.st2{fill:#FFFFFF;}
	.st3{fill:url(#SVGID_1_);}
	.st4{fill:#03045E;}
</style>
<title>logo-svg</title>
<desc>Created with Sketch.</desc>
<path id="Path" class="st0" d="M6,25.3c-0.8,2-1.5,4.2-1.8,6.8C3.1,42,10.7,49.9,20.5,49.9s17.9-8.1,17.9-18.1
	c0-1.8-0.9-4.5-0.9-4.5c-0.8,5.2-5.1,8.2-5.1,8.2c2.6-7,1.2-13.3-1.9-18C23.3,7.1,25.2,0,25.2,0c-9.6,8.7-9.1,18.3-9.1,18.3
	C15.2,12.4,8,10.1,8,10.1c2.4,4.1,1.5,7.3-0.1,10.8C6.8,23.5,6,25.3,6,25.3z"/>
<path class="st1" d="M26.6,17.6c3.2,4.6,6.5,8.7,5.9,17.9l0,0c0.8-2.1,1.4-4.9,1.4-7.2c0-4.1-1.3-7.8-3.3-10.7
	C23.3,7.1,25.2,0,25.2,0c-1.6,1.5-3,2.9-4,4.4C21.5,7.5,22.8,12.1,26.6,17.6z"/>
<g>
	<path id="path-2_1_" d="M74.2,17.8v17.3c0,3.9-1.1,6.9-3.2,8.8c-2.1,2-5.2,2.9-9.2,2.9c-2.1,0-4-0.2-5.9-0.7
		c-1.8-0.5-3.4-1.2-4.6-2.1l2.7-5.2c0.9,0.7,1.9,1.3,3.3,1.7c1.3,0.4,2.6,0.6,3.9,0.6c2,0,3.4-0.4,4.3-1.3s1.4-2.1,1.4-3.8v-0.7
		c-1.4,1.7-3.5,2.5-6.3,2.5c-1.9,0-3.6-0.4-5.2-1.3c-1.6-0.8-2.8-2-3.8-3.6s-1.4-3.3-1.4-5.4c0-2,0.5-3.8,1.4-5.3s2.2-2.7,3.8-3.6
		c1.6-0.8,3.3-1.3,5.2-1.3c3,0,5.2,1,6.6,2.9v-2.6h7V17.8z M62.3,32c1.3,0,2.4-0.4,3.3-1.2c0.9-0.8,1.3-1.8,1.3-3.1
		s-0.4-2.3-1.3-3.1c-0.9-0.8-2-1.2-3.3-1.2s-2.5,0.4-3.3,1.2c-0.9,0.8-1.3,1.8-1.3,3.1s0.4,2.3,1.3,3.1C59.9,31.6,61,32,62.3,32z
		 M100.6,28.4c0,0.1,0,0.7-0.1,1.8H85.1c0.3,1.1,0.9,1.9,1.8,2.5s2,0.9,3.4,0.9c1,0,1.9-0.1,2.6-0.4c0.7-0.3,1.5-0.8,2.2-1.4
		l3.9,4.1c-2.1,2.3-5.1,3.4-9,3.4c-2.5,0-4.6-0.5-6.5-1.4s-3.3-2.2-4.3-3.9s-1.5-3.5-1.5-5.7c0-2.1,0.5-3.9,1.5-5.6s2.4-2.9,4.2-3.9
		s3.8-1.4,6-1.4c2.1,0,4,0.4,5.7,1.3s3.1,2.1,4.1,3.8C100.1,24.2,100.6,26.2,100.6,28.4z M89.3,22.7c-1.1,0-2.1,0.3-2.9,1
		s-1.3,1.5-1.5,2.7h8.7c-0.2-1.1-0.7-2-1.5-2.7C91.4,23.1,90.5,22.7,89.3,22.7z M118.6,38.1c-0.6,0.4-1.4,0.7-2.3,0.9
		s-1.9,0.3-2.9,0.3c-2.8,0-4.9-0.7-6.4-2c-1.5-1.4-2.2-3.4-2.2-6v-7.1h-3.1v-5.5h3.1v-5.5h7.4v5.5h4.8v5.5h-4.8v7
		c0,0.8,0.2,1.3,0.6,1.8c0.4,0.4,0.9,0.6,1.6,0.6c0.9,0,1.6-0.2,2.3-0.7L118.6,38.1z M131.1,31.5l-2.2,2.2V39h-7.4V10h7.4v15.2
		l7.6-7.4h8.8l-8.8,9L146,39h-9L131.1,31.5z M158.1,39.3c-2.3,0-4.4-0.5-6.3-1.4c-1.8-0.9-3.3-2.2-4.3-3.9s-1.5-3.5-1.5-5.7
		s0.5-4,1.5-5.6s2.5-2.9,4.3-3.9c1.8-0.9,3.9-1.4,6.3-1.4c2.4,0,4.5,0.5,6.2,1.5s3,2.5,3.7,4.3l-5.7,2.9c-1-1.9-2.4-2.8-4.2-2.8
		c-1.3,0-2.4,0.4-3.3,1.3c-0.9,0.9-1.3,2.1-1.3,3.7s0.4,2.8,1.3,3.7c0.9,0.9,2,1.3,3.3,1.3c1.8,0,3.3-0.9,4.2-2.8l5.7,2.9
		c-0.7,1.8-2,3.2-3.7,4.3C162.5,38.8,160.5,39.3,158.1,39.3z M179.8,17.5c3.5,0,6.2,0.8,8,2.4s2.8,4,2.8,7.4V39h-6.9v-2.7
		c-1.1,2.1-3.1,3.1-6.2,3.1c-1.6,0-3.1-0.3-4.3-0.9c-1.2-0.6-2.1-1.3-2.7-2.3c-0.6-1-0.9-2.1-0.9-3.3c0-2,0.8-3.6,2.3-4.7
		s3.9-1.7,7.1-1.7h4.2c-0.1-2.2-1.6-3.4-4.5-3.4c-1,0-2,0.2-3.1,0.5c-1,0.3-1.9,0.8-2.7,1.3l-2.5-5c1.2-0.8,2.6-1.4,4.3-1.8
		S178.1,17.5,179.8,17.5z M179.5,34.6c0.9,0,1.6-0.2,2.3-0.6c0.6-0.4,1.1-1,1.4-1.8v-1.8H180c-2.2,0-3.2,0.7-3.2,2.1
		c0,0.7,0.2,1.2,0.7,1.6C178,34.4,178.7,34.6,179.5,34.6z M195.3,10h7.4v29h-7.4V10z"/>
</g>
<g>
	<path class="st2" d="M74.2,17.8v17.3c0,3.9-1.1,6.9-3.2,8.8c-2.1,2-5.2,2.9-9.2,2.9c-2.1,0-4-0.2-5.9-0.7c-1.8-0.5-3.4-1.2-4.6-2.1
		l2.7-5.2c0.9,0.7,1.9,1.3,3.3,1.7c1.3,0.4,2.6,0.6,3.9,0.6c2,0,3.4-0.4,4.3-1.3s1.4-2.1,1.4-3.8v-0.7c-1.4,1.7-3.5,2.5-6.3,2.5
		c-1.9,0-3.6-0.4-5.2-1.3c-1.6-0.8-2.8-2-3.8-3.6s-1.4-3.3-1.4-5.4c0-2,0.5-3.8,1.4-5.3s2.2-2.7,3.8-3.6c1.6-0.8,3.3-1.3,5.2-1.3
		c3,0,5.2,1,6.6,2.9v-2.6h7V17.8z M62.3,32c1.3,0,2.4-0.4,3.3-1.2c0.9-0.8,1.3-1.8,1.3-3.1s-0.4-2.3-1.3-3.1c-0.9-0.8-2-1.2-3.3-1.2
		s-2.5,0.4-3.3,1.2c-0.9,0.8-1.3,1.8-1.3,3.1s0.4,2.3,1.3,3.1C59.9,31.6,61,32,62.3,32z M100.6,28.4c0,0.1,0,0.7-0.1,1.8H85.1
		c0.3,1.1,0.9,1.9,1.8,2.5s2,0.9,3.4,0.9c1,0,1.9-0.1,2.6-0.4c0.7-0.3,1.5-0.8,2.2-1.4l3.9,4.1c-2.1,2.3-5.1,3.4-9,3.4
		c-2.5,0-4.6-0.5-6.5-1.4s-3.3-2.2-4.3-3.9s-1.5-3.5-1.5-5.7c0-2.1,0.5-3.9,1.5-5.6s2.4-2.9,4.2-3.9s3.8-1.4,6-1.4
		c2.1,0,4,0.4,5.7,1.3s3.1,2.1,4.1,3.8C100.1,24.2,100.6,26.2,100.6,28.4z M89.3,22.7c-1.1,0-2.1,0.3-2.9,1s-1.3,1.5-1.5,2.7h8.7
		c-0.2-1.1-0.7-2-1.5-2.7C91.4,23.1,90.5,22.7,89.3,22.7z M118.6,38.1c-0.6,0.4-1.4,0.7-2.3,0.9s-1.9,0.3-2.9,0.3
		c-2.8,0-4.9-0.7-6.4-2c-1.5-1.4-2.2-3.4-2.2-6v-7.1h-3.1v-5.5h3.1v-5.5h7.4v5.5h4.8v5.5h-4.8v7c0,0.8,0.2,1.3,0.6,1.8
		c0.4,0.4,0.9,0.6,1.6,0.6c0.9,0,1.6-0.2,2.3-0.7L118.6,38.1z M131.1,31.5l-2.2,2.2V39h-7.4V10h7.4v15.2l7.6-7.4h8.8l-8.8,9L146,39
		h-9L131.1,31.5z M158.1,39.3c-2.3,0-4.4-0.5-6.3-1.4c-1.8-0.9-3.3-2.2-4.3-3.9s-1.5-3.5-1.5-5.7s0.5-4,1.5-5.6s2.5-2.9,4.3-3.9
		c1.8-0.9,3.9-1.4,6.3-1.4c2.4,0,4.5,0.5,6.2,1.5s3,2.5,3.7,4.3l-5.7,2.9c-1-1.9-2.4-2.8-4.2-2.8c-1.3,0-2.4,0.4-3.3,1.3
		c-0.9,0.9-1.3,2.1-1.3,3.7s0.4,2.8,1.3,3.7c0.9,0.9,2,1.3,3.3,1.3c1.8,0,3.3-0.9,4.2-2.8l5.7,2.9c-0.7,1.8-2,3.2-3.7,4.3
		C162.5,38.8,160.5,39.3,158.1,39.3z M179.8,17.5c3.5,0,6.2,0.8,8,2.4s2.8,4,2.8,7.4V39h-6.9v-2.7c-1.1,2.1-3.1,3.1-6.2,3.1
		c-1.6,0-3.1-0.3-4.3-0.9c-1.2-0.6-2.1-1.3-2.7-2.3c-0.6-1-0.9-2.1-0.9-3.3c0-2,0.8-3.6,2.3-4.7s3.9-1.7,7.1-1.7h4.2
		c-0.1-2.2-1.6-3.4-4.5-3.4c-1,0-2,0.2-3.1,0.5c-1,0.3-1.9,0.8-2.7,1.3l-2.5-5c1.2-0.8,2.6-1.4,4.3-1.8S178.1,17.5,179.8,17.5z
		 M179.5,34.6c0.9,0,1.6-0.2,2.3-0.6c0.6-0.4,1.1-1,1.4-1.8v-1.8H180c-2.2,0-3.2,0.7-3.2,2.1c0,0.7,0.2,1.2,0.7,1.6
		C178,34.4,178.7,34.6,179.5,34.6z M195.3,10h7.4v29h-7.4V10z"/>
</g>
<g>
	
		<linearGradient id="SVGID_1_" gradientUnits="userSpaceOnUse" x1="-786.8073" y1="26.167" x2="-785.8075" y2="26.167" gradientTransform="matrix(152.529 0 0 36.855 120061.1328 -935.9832)">
		<stop  offset="0" style="stop-color:#0077B6"/>
		<stop  offset="1" style="stop-color:#90E0EF"/>
	</linearGradient>
	<path class="st3" d="M74.2,17.8v17.3c0,3.9-1.1,6.9-3.2,8.8c-2.1,2-5.2,2.9-9.2,2.9c-2.1,0-4-0.2-5.9-0.7c-1.8-0.5-3.4-1.2-4.6-2.1
		l2.7-5.2c0.9,0.7,1.9,1.3,3.3,1.7c1.3,0.4,2.6,0.6,3.9,0.6c2,0,3.4-0.4,4.3-1.3s1.4-2.1,1.4-3.8v-0.7c-1.4,1.7-3.5,2.5-6.3,2.5
		c-1.9,0-3.6-0.4-5.2-1.3c-1.6-0.8-2.8-2-3.8-3.6s-1.4-3.3-1.4-5.4c0-2,0.5-3.8,1.4-5.3s2.2-2.7,3.8-3.6c1.6-0.8,3.3-1.3,5.2-1.3
		c3,0,5.2,1,6.6,2.9v-2.6h7V17.8z M62.3,32c1.3,0,2.4-0.4,3.3-1.2c0.9-0.8,1.3-1.8,1.3-3.1s-0.4-2.3-1.3-3.1c-0.9-0.8-2-1.2-3.3-1.2
		s-2.5,0.4-3.3,1.2c-0.9,0.8-1.3,1.8-1.3,3.1s0.4,2.3,1.3,3.1C59.9,31.6,61,32,62.3,32z M100.6,28.4c0,0.1,0,0.7-0.1,1.8H85.1
		c0.3,1.1,0.9,1.9,1.8,2.5s2,0.9,3.4,0.9c1,0,1.9-0.1,2.6-0.4c0.7-0.3,1.5-0.8,2.2-1.4l3.9,4.1c-2.1,2.3-5.1,3.4-9,3.4
		c-2.5,0-4.6-0.5-6.5-1.4s-3.3-2.2-4.3-3.9s-1.5-3.5-1.5-5.7c0-2.1,0.5-3.9,1.5-5.6s2.4-2.9,4.2-3.9s3.8-1.4,6-1.4
		c2.1,0,4,0.4,5.7,1.3s3.1,2.1,4.1,3.8C100.1,24.2,100.6,26.2,100.6,28.4z M89.3,22.7c-1.1,0-2.1,0.3-2.9,1s-1.3,1.5-1.5,2.7h8.7
		c-0.2-1.1-0.7-2-1.5-2.7C91.4,23.1,90.5,22.7,89.3,22.7z M118.6,38.1c-0.6,0.4-1.4,0.7-2.3,0.9s-1.9,0.3-2.9,0.3
		c-2.8,0-4.9-0.7-6.4-2c-1.5-1.4-2.2-3.4-2.2-6v-7.1h-3.1v-5.5h3.1v-5.5h7.4v5.5h4.8v5.5h-4.8v7c0,0.8,0.2,1.3,0.6,1.8
		c0.4,0.4,0.9,0.6,1.6,0.6c0.9,0,1.6-0.2,2.3-0.7L118.6,38.1z M131.1,31.5l-2.2,2.2V39h-7.4V10h7.4v15.2l7.6-7.4h8.8l-8.8,9L146,39
		h-9L131.1,31.5z M158.1,39.3c-2.3,0-4.4-0.5-6.3-1.4c-1.8-0.9-3.3-2.2-4.3-3.9s-1.5-3.5-1.5-5.7s0.5-4,1.5-5.6s2.5-2.9,4.3-3.9
		c1.8-0.9,3.9-1.4,6.3-1.4c2.4,0,4.5,0.5,6.2,1.5s3,2.5,3.7,4.3l-5.7,2.9c-1-1.9-2.4-2.8-4.2-2.8c-1.3,0-2.4,0.4-3.3,1.3
		c-0.9,0.9-1.3,2.1-1.3,3.7s0.4,2.8,1.3,3.7c0.9,0.9,2,1.3,3.3,1.3c1.8,0,3.3-0.9,4.2-2.8l5.7,2.9c-0.7,1.8-2,3.2-3.7,4.3
		C162.5,38.8,160.5,39.3,158.1,39.3z M179.8,17.5c3.5,0,6.2,0.8,8,2.4s2.8,4,2.8,7.4V39h-6.9v-2.7c-1.1,2.1-3.1,3.1-6.2,3.1
		c-1.6,0-3.1-0.3-4.3-0.9c-1.2-0.6-2.1-1.3-2.7-2.3c-0.6-1-0.9-2.1-0.9-3.3c0-2,0.8-3.6,2.3-4.7s3.9-1.7,7.1-1.7h4.2
		c-0.1-2.2-1.6-3.4-4.5-3.4c-1,0-2,0.2-3.1,0.5c-1,0.3-1.9,0.8-2.7,1.3l-2.5-5c1.2-0.8,2.6-1.4,4.3-1.8S178.1,17.5,179.8,17.5z
		 M179.5,34.6c0.9,0,1.6-0.2,2.3-0.6c0.6-0.4,1.1-1,1.4-1.8v-1.8H180c-2.2,0-3.2,0.7-3.2,2.1c0,0.7,0.2,1.2,0.7,1.6
		C178,34.4,178.7,34.6,179.5,34.6z M195.3,10h7.4v29h-7.4V10z"/>
</g>
<path class="st0" d="M8.1,17.8L8.1,17.8C7,12.4,0,10.2,0,10.2c0.6,1.1,1,2.1,1.2,3C3.6,14,8.1,17.8,8.1,17.8z"/>
<path class="st1" d="M37.5,27.4c-0.4,2.9-2,5.1-3.2,6.5c-0.9,8.4-7.5,15-15.8,15.9c0.7,0.1,1.3,0.1,2,0.1c9.9,0,17.9-8.1,17.9-18.1
	C38.4,30,37.5,27.4,37.5,27.4z"/>
<path class="st4" d="M25,37.8c0.7,1.4,1.2,2.8,1.2,3.7c0,3-2.4,5.4-5.4,5.4s-5.4-2.4-5.4-5.4s5.4-10.8,5.4-10.8s1.2,1.8,2.5,4
	L25,37.8z"/>
</svg>
